X: 100204
M: 3/4
L: 1/8
K: G
uD2 !segno!|\
c6 | (b2g2d2) | B6 | (g2d2B2) | (A4c2) | E4F2 |[1 "_>"A2"_>"G2"_>"E2 "_>"D2"_>"C2"_>"A,2 !segno!:|\
[2 (.G3.G)G2- | G2 |]
|: vABcd |\
(g4b2) | (d2g2B2) | d6 | (c4D2) | (FEFGAB) | (c4A2) | (GFGABc) | (d4B2) |\
(g4b2) | (d2g2B2) | d6 | (c4D2) | (FEFGAB) | c2e2d2 | (c2E3)vF |[1 G2 :|[2 (c2E3)vF | G2z2 "_D.C."|]


